src/images/instagram_2.svg

<svg fill="none" height="25" viewBox="0 0 25 25" width="25" xmlns="http://www.w3.org/2000/svg"><path d="m12.5 0c6.903 0 12.5 5.59687 12.5 12.5 0 6.9032-5.5969 12.5-12.5 12.5-6.90304 0-12.5-5.5969-12.5-12.5 0-6.90304 5.5961-12.5 12.5-12.5z" fill="#fff"/><path d="m16.8136 5.46722h-8.62882c-1.49922 0-2.71798 1.21954-2.71798 2.71799v8.62969c0 1.4992 1.21954 2.718 2.71798 2.718h8.62972c1.4992 0 2.718-1.2195 2.718-2.718v-8.62969c-.0001-1.49845-1.2196-2.71799-2.7189-2.71799zm.8563 1.57268.3078-.00077v2.33438l-2.3515.00781-.0078-2.33438zm-5.1703 3.107c1.9508 0 2.3531 1.8312 2.3531 2.3539 0 1.296-1.0562 2.3523-2.3531 2.3523-1.2976 0-2.3531-1.0563-2.3531-2.3523-.0008-.5227.4024-2.3539 2.3531-2.3539zm5.4914 6.4977c0 .743-.6039 1.3476-1.3484 1.3476h-8.31253c-.74378 0-1.34844-.6039-1.34844-1.3476v-5.7102h1.9531c-.18124.4461-.28362 1.0555-.28362 1.5664 0 2.1204 1.72499 3.8462 3.84609 3.8462 2.1212 0 3.8453-1.7258 3.8453-3.8462 0-.5109-.1024-1.1203-.2828-1.5664h1.9296v5.7102z" fill="#00adee"/></svg>

<svg width="25" height="25" viewBox="0 0 25 25" fill="none" xmlns="http://www.w3.org/2000/svg">
<path d="M12.5 0C19.403 0 25 5.59687 25 12.5C25 19.4032 19.4031 25 12.5 25C5.59696 25 0 19.4031 0 12.5C0 5.59696 5.5961 0 12.5 0Z" fill="white"/>
<path d="M16.8136 5.46722H8.18478C6.68556 5.46722 5.4668 6.68676 5.4668 8.18521V16.8149C5.4668 18.3141 6.68634 19.5329 8.18478 19.5329H16.8145C18.3137 19.5329 19.5325 18.3134 19.5325 16.8149V8.18521C19.5324 6.68676 18.3129 5.46722 16.8136 5.46722ZM17.6699 7.0399L17.9777 7.03913V9.37351L15.6262 9.38132L15.6184 7.04694L17.6699 7.0399ZM12.4996 10.1469C14.4504 10.1469 14.8527 11.9781 14.8527 12.5008C14.8527 13.7968 13.7965 14.8531 12.4996 14.8531C11.202 14.8531 10.1465 13.7968 10.1465 12.5008C10.1457 11.9781 10.5489 10.1469 12.4996 10.1469ZM17.991 16.6446C17.991 17.3876 17.3871 17.9922 16.6426 17.9922H8.33007C7.58629 17.9922 6.98163 17.3883 6.98163 16.6446V10.9344H8.93473C8.75349 11.3805 8.65111 11.9899 8.65111 12.5008C8.65111 14.6212 10.3761 16.347 12.4972 16.347C14.6184 16.347 16.3425 14.6212 16.3425 12.5008C16.3425 11.9899 16.2401 11.3805 16.0597 10.9344H17.9893V16.6446H17.991Z" fill="#00ADEE"/>
</svg>
